packages/foundations/assets/icons/functional/images/accessibility/support_dog_16.svg

<svg width="16" height="16" viewBox="0 0 16 16" fill="none" xmlns="http://www.w3.org/2000/svg">
<g clip-path="url(#clip0_183_3623)">
<path fill-rule="evenodd" clip-rule="evenodd" d="M13.853 4.04928L11.632 3.30728L10.166 1.84128C10.0624 1.73686 9.93185 1.66312 9.78891 1.62823C9.64598 1.59333 9.49618 1.59863 9.35607 1.64354C9.21596 1.68845 9.09099 1.77122 8.99497 1.88271C8.89896 1.9942 8.83564 2.13006 8.81201 2.27528L8.15201 6.22728L3.76601 1.84128C3.69253 1.76381 3.60428 1.70182 3.50647 1.65899C3.40866 1.61615 3.30326 1.59333 3.19649 1.59187C3.08972 1.59041 2.98373 1.61034 2.88479 1.65048C2.78584 1.69063 2.69593 1.75017 2.62036 1.82561C2.54479 1.90105 2.48508 1.99085 2.44476 2.08973C2.40445 2.18861 2.38433 2.29455 2.3856 2.40133C2.38687 2.5081 2.40951 2.61354 2.45217 2.71142C2.49483 2.80931 2.55666 2.89767 2.63401 2.97128L6.07001 6.40728H3.34201C3.29701 6.33528 3.20001 6.12328 3.20001 5.60728C3.20001 5.39511 3.11572 5.19163 2.96569 5.0416C2.81566 4.89157 2.61218 4.80728 2.40001 4.80728C2.18783 4.80728 1.98435 4.89157 1.83432 5.0416C1.68429 5.19163 1.60001 5.39511 1.60001 5.60728C1.60001 6.81828 2.00001 7.41728 2.40001 7.71428V12.4073C2.40001 13.5103 3.29801 14.4073 4.40001 14.4073C5.50201 14.4073 6.40001 13.5103 6.40001 12.4073V11.5183C6.90001 11.6233 7.50001 11.6233 8.00001 11.5183V12.4083C8.00001 13.5103 8.89801 14.4083 10 14.4083C11.102 14.4083 12 13.5103 12 12.4083V7.90528C13.156 7.62028 14.4 6.69928 14.4 4.80628C14.4 4.46128 14.18 4.15728 13.853 4.04928ZM5.95801 9.69228C5.83599 9.63123 5.70039 9.60239 5.5641 9.60852C5.4278 9.61464 5.29533 9.65552 5.17929 9.72727C5.06324 9.79903 4.96748 9.89926 4.90109 10.0185C4.83471 10.1377 4.79991 10.2718 4.80001 10.4083V12.4083C4.80001 12.5144 4.75786 12.6161 4.68285 12.6911C4.60783 12.7661 4.50609 12.8083 4.40001 12.8083C4.29392 12.8083 4.19218 12.7661 4.11716 12.6911C4.04215 12.6161 4.00001 12.5144 4.00001 12.4083V8.00828H7.20001V10.0083C6.70701 10.0083 6.13401 9.77928 5.95801 9.69228ZM10 12.8083C9.89392 12.8083 9.79218 12.7661 9.71716 12.6911C9.64215 12.6161 9.60001 12.5144 9.60001 12.4083V10.4083C9.59948 10.1963 9.51502 9.9931 9.36511 9.84318C9.21519 9.69327 9.01202 9.60881 8.80001 9.60828V8.50328L10.4 9.30328V12.4093C10.4 12.5154 10.3579 12.6171 10.2828 12.6921C10.2078 12.7671 10.1061 12.8093 10 12.8093V12.8083ZM11.2 6.40828C10.9878 6.40828 10.7843 6.49257 10.6343 6.6426C10.4843 6.79263 10.4 6.99611 10.4 7.20828V7.51428L9.62501 7.12628L10.134 4.07328L10.634 4.57328C10.7221 4.66079 10.8292 4.72683 10.947 4.76628L12.73 5.36128C12.464 6.30528 11.518 6.40328 11.2 6.40828Z" fill="#1A1C1F"/>
</g>
<defs>
<clipPath id="clip0_183_3623">
<rect width="16" height="16" fill="white"/>
</clipPath>
</defs>
</svg>

<svg xmlns="http://www.w3.org/2000/svg" width="16" height="16" fill="none"><g clip-path="url(#a)"><path fill="#1A1C1F" fill-rule="evenodd" d="m13.853 4.05-2.221-.743-1.466-1.466a.798.798 0 0 0-1.354.434l-.66 3.952-4.386-4.386a.8.8 0 1 0-1.132 1.13L6.07 6.407H3.342c-.045-.072-.142-.284-.142-.8a.8.8 0 0 0-1.6 0c0 1.211.4 1.81.8 2.107v4.693c0 1.103.898 2 2 2s2-.897 2-2v-.889c.5.105 1.1.105 1.6 0v.89c0 1.102.898 2 2 2s2-.898 2-2V7.905c1.156-.285 2.4-1.206 2.4-3.099a.8.8 0 0 0-.547-.757M5.958 9.691a.8.8 0 0 0-1.158.716v2a.4.4 0 1 1-.8 0v-4.4h3.2v2c-.493 0-1.066-.229-1.242-.316M10 12.808a.4.4 0 0 1-.4-.4v-2a.8.8 0 0 0-.8-.8V8.503l1.6.8v3.106a.4.4 0 0 1-.4.4m1.2-6.4a.8.8 0 0 0-.8.8v.306l-.775-.388.509-3.053.5.5a.8.8 0 0 0 .313.193l1.783.595c-.266.944-1.212 1.042-1.53 1.047" clip-rule="evenodd"/></g><defs><clipPath id="a"><path fill="#fff" d="M0 0h16v16H0z"/></clipPath></defs></svg>
